icons/bhi_add.svg

<svg xmlns="http://www.w3.org/2000/svg" viewBox="0 0 512 512" enable-background="new 0 0 512 512"><path fill="#010101" d="M256.1 0c-140.9 0-256.1 115.2-256.1 256.1s115.2 256.1 256.1 256.1 256.1-115.2 256.1-256.1-115.3-256.1-256.1-256.1zm127.3 281.2h-102.4v102.4h-51.2v-102.4h-102.5v-51.2h102.4v-102.4h51.3v102.4h102.4v51.2z"/></svg>

<?xml version="1.0" encoding="utf-8"?>
<!-- Generator: Adobe Illustrator 19.2.0, SVG Export Plug-In . SVG Version: 6.00 Build 0)  -->
<svg version="1.1" id="Layer_1" xmlns="http://www.w3.org/2000/svg" xmlns:xlink="http://www.w3.org/1999/xlink" x="0px" y="0px"
	 viewBox="0 0 512 512" enable-background="new 0 0 512 512" xml:space="preserve">
<path fill="#010101" d="M256.1,0C115.2,0,0,115.2,0,256.1s115.2,256.1,256.1,256.1s256.1-115.2,256.1-256.1S396.9,0,256.1,0z
	 M383.4,281.2H281v102.4h-51.2V281.2H127.3V230h102.4V127.6H281V230h102.4V281.2z"/>
</svg>
